X:1400
T:Seige of Belish
A:Wyresdale, Lancashire
B:E and J Winder, 1835-41
L:1/8
M:C|
N:General Monk's March 
O:England
Z:Richard Robinson 
%%TUNEURL: http://www.leeds.ac.uk/music/Info/RRTuneBk/gettune/00001218.html
%%ID:00001218
K:G
D2 | \
G2GB A2Ac | B2ge d2c2 | B2 (3dcB A2 (3cBA | G2GG G2 ::
D2 | \
dedc B2B2 | cdcB {A}A4 | dedc BcBc | de (3dcB {A}A3 D |
G2 (G>B) A2 Ac | B2ge {e}d3c | B2 (3dcB A2 (3cAF | G2 GG G2 ::
